icon-themes/sifr_svg/res/odm_32_8.svg

<svg viewBox="0 0 32 32" xmlns="http://www.w3.org/2000/svg"><path d="m28-.00195313-8 .00195313c-.54701 0-.433161 0 .537109 1l7.462891 7.4707031c1.17188 1.14517 1 1.0683769 1-.4707031v-7.00195312c-.00006-.55226-.44774-.99994001-1-1.00000001zm-24 .00195313a1.0001 1.0001 0 0 0 -1 1v30a1.0001 1.0001 0 0 0 1 1h24a1.0001 1.0001 0 0 0 1-1v-19a1.0001 1.0001 0 0 0 -.292969-.707031l-11-11.00000025a1.0001 1.0001 0 0 0 -.707031-.29296875zm1 2h11.585938l10.414062 10.414062v17.585938h-22zm3 10v1h7v-1zm9 0v1h7v-1zm-9 2v1h7v-1zm9 0v1h7v-1zm-9 2v1h5v-1zm9 0v1h5v-1zm-9 3v1h7v-1zm9 0v1h7v-1zm-9 2v1h7v-1zm9 0v1h7v-1zm-9 2v1h5v-1zm9 0v1h5v-1z" fill="#555753"/></svg>

<svg xmlns="http://www.w3.org/2000/svg" viewBox="0 0 32 32">
 <path
     style="fill:#555753"
     d="M 28 -0.001953125 L 20 0 C 19.45299 0 19.566839 0 20.537109 1 L 28 8.4707031 C 29.17188 9.6158731 29 9.53908 29 8 L 29 0.99804688 C 28.99994 0.44578688 28.55226 -0.001893125 28 -0.001953125 z M 4 0 A 1.0001 1.0001 0 0 0 3 1 L 3 31 A 1.0001 1.0001 0 0 0 4 32 L 28 32 A 1.0001 1.0001 0 0 0 29 31 L 29 12 A 1.0001 1.0001 0 0 0 28.707031 11.292969 L 17.707031 0.29296875 A 1.0001 1.0001 0 0 0 17 0 L 4 0 z M 5 2 L 16.585938 2 L 27 12.414062 L 27 30 L 5 30 L 5 2 z M 8 12 L 8 13 L 15 13 L 15 12 L 8 12 z M 17 12 L 17 13 L 24 13 L 24 12 L 17 12 z M 8 14 L 8 15 L 15 15 L 15 14 L 8 14 z M 17 14 L 17 15 L 24 15 L 24 14 L 17 14 z M 8 16 L 8 17 L 13 17 L 13 16 L 8 16 z M 17 16 L 17 17 L 22 17 L 22 16 L 17 16 z M 8 19 L 8 20 L 15 20 L 15 19 L 8 19 z M 17 19 L 17 20 L 24 20 L 24 19 L 17 19 z M 8 21 L 8 22 L 15 22 L 15 21 L 8 21 z M 17 21 L 17 22 L 24 22 L 24 21 L 17 21 z M 8 23 L 8 24 L 13 24 L 13 23 L 8 23 z M 17 23 L 17 24 L 22 24 L 22 23 L 17 23 z "
     />
 </svg>
